X:1
T:Keep on the Firing Line
T:Keep on the Firing Line
T:Bessie F. Simmins Hatcher
T:Bessie F. Simmins Hatcher, 1915
T:Public Domain Courtesy of the Cyber Hymnal™
T:Public Domain Courtesy of the Cyber Hymnal™
C:Bessie F. Simmins Hatcher
Z:Public Domain
Z:Courtesy of the Cyber Hymnal™
%%score 1 ( 2 3 )
L:1/8
Q:1/4=100
M:4/4
K:C
V:1 treble 
V:2 bass 
V:3 bass 
V:1
 [EG]>[EG] [EG]>[EA] [EG]>[EG] [Ec]>[Fd] | [Ge]2 [Ec]2 [EG]4 | [FA] [Fc]2 [Fc] [FA]2 [Fc]2 | %3
w: 1.~If you’re in the bat- tle for the|Lord and right,|Keep on the fir- ing|
w: 2.~God will on- ly use the sol- diers|He can trust,~To|keep on the fir- ing|
w: 3.~When you get to glo- ry, bro- ther,|you’ll be glad|God had the fir- ing|
 [EG]6 z2 | [EG]>[EG] [EG]>[FA] [EG]>[EG] [Ec]>[Fd] | [Ge]2 [Gd]2 [Gc]2 [GB]2 | %6
w: line;|If you’d sure- ly win, my bro- ther,|you must fight, And|
w: line;|If you’d wear a crown then bear a|cross you must, And|
w: line;|How you’ll praise the Mas- ter for the|call you had, To|
 [^FA] [Fd]2 [Fe] [Fd]2 [FA]2 | [Fd]6 z2 | [FG]>[FA] [FB]>[Fc] [Fd]>[FB] [FA]>[FG] | %9
w: keep on the fir- ing|line;|There are ma- ny dan- gers ev- ery-|
w: keep on the fir- ing|line;|Life is ours to la- bor for the|
w: get on the fir- ing|line;|When you see the pre- cious souls you|
 [Ec]2 [Gd]2 [Ge]4 | [Fc]>[Fc] [Fc]>[Fc] [Fd]>[Fc] [FB]>[FA] | [EG]2 [CE]2 [EG]4 | %12
w: one must face,|If you die a- fight- ing that is|no dis- grace;|
w: Mas- ter here,|Help to ban- ish e- vil and to|spread good cheer;|
w: helped to win,|Lead- ing them to Je- sus from the|paths of sin,|
 [EG]>[EG] [Ec]>[Gd] [Ge]>[Ge] [Gd]>[Gc] | [FA]2 [Ae]2 [Af]2 [Af]2 | [Ge] [Ge]2 [Ec] [Fd]2 [FB]2 | %15
w: With the Lord for cow- ards you will|find no place, So|keep on the fir- ing|
w: Great re- ward He gives you for the|ser- vice here, So|keep on the fir- ing|
w: Hear the shout of wel- come when we|all march in, Who|served on the fir- ing|
 [Ec]6 ||"^Refrain" [EG]2 | [Ec]4 [Fc]3 [FB] | [FA]2 [Fc]2 [FA] [EG]3 | [Ec]2 [Fc]2 [Gc]2 [Ec]2 | %20
w: line.|||||
w: line.|Then|fight brave a-|gainst all e- vil,|Ne- ver run or|
w: line.|||||
 [^Fc][FA][FB][Fc] [=Fd]3 [FG] | [Ge]2 [Gd]2 [Gc]2 [GB]2 | [FA]2 [GA]2 !fermata![Af]4 | %23
w: |||
w: e- ven lag be- hind; If|you would win for|God and right,|
w: |||
 [Ge] [Ge]2 [Ec] [Fd]2 [FB]2 | [Ec]6 z2 |] %25
w: ||
w: Keep on the fir- ing|line.|
w: ||
V:2
 [C,C]>[C,C] [C,C]>[C,C] [C,C]>[C,C] [C,G,]>[C,G,] | [C,C]2 [C,C]2 [C,C]4 | %2
 [F,C] [F,A,]2 [F,A,] [F,C]2 [F,A,]2 | [C,C]6 z2 | %4
 [C,C]>[C,C] [C,C]>[C,C] [C,C]>[C,C] [C,G,]>[C,G,] | [C,C]2 [D,B,]2 [E,C]2 [E,^C]2 | %6
 [D,C] [D,C]2 [D,C] [D,C]2 [D,C]2 | [G,B,]6 z2 | [B,D]>[B,D] [A,D]>[A,D] [A,C]>[G,E] [A,D]>[B,D] | %9
 C2 [G,B,]2 [C,C]4 | [F,A,]>[F,A,] [F,A,]>[F,A,] [F,A,]>[F,A,] [F,C]>[F,C] | %11
 [C,C]2 [C,G,]2 [C,C]4 | [C,C]>[C,C] [C,C]>[G,B,] C>C [E,C]>[E,C] | [F,C]2 [E,^C]2 [D,D]2 [D,D]2 | %14
 [G,C] [G,C]2 [G,C] [G,B,]2 [G,D]2 | [C,C]6 || [C,C]2 | [C,G,]4 [F,A,]3 [F,B,] | %18
 [F,C]2 [F,A,]2 [C,C] [C,C]3 | [C,C]2 [D,C]2 [E,C]2 [C,C]2 | [C,C][C,C][D,D][D,C] [G,B,]3 [G,B,] | %21
 [C,C]2 [D,B,]2 [E,C]2 [C,C]2 | [F,C]2 [E,^C]2 !fermata![D,D]4 | %23
 [G,C] [G,C]2 [G,C] [G,B,]2 [G,D]2 | [C,C]6 z2 |] %25
V:3
 x8 | x8 | x8 | x8 | x8 | x8 | x8 | x8 | x8 | C2 x6 | x8 | x8 | x4 C>C x2 | x8 | x8 | x6 || x2 | %17
 x8 | x8 | x8 | x8 | x8 | x8 | x8 | x8 |] %25

